X:1
T:Title
%%score ( 1 2 ) { 3 | 4 }
L:1/8
Q:1/4=95
M:3/4
K:C
V:1 treble nm="Grand Piano, Soprano"
V:2 treble 
V:3 treble nm="Choir Pad, Hark! The Voice of Angels"
V:4 bass 
V:1
 [EG]>[EG] [Ec]3 [EG] | [CE]>[DF] [FA]2 [EG]2 | (3[CE][EG][Ec] [Ge]4 | [Fd]2 [Ec]4 | %4
w: By~Matthew~Lindsay~McPhail * * *||||
 [CE]>[CE] [EA]3 [CE] | z2 z2 e2- | e2 z2 z2 | [^FA]2 [=Fd]4 | [FG]>[FG] [Ec]3 [EG] | %9
w: |||||
 [CE]>[DF] [FA]2 [EG]2 | (3[CE][EG][Ec] [Ge]4 | [^Gd]2 [Ac]4 | [^Fc]>[Fc] [Fc]3 [Fc] | %13
w: ||||
 [^FB]>[FA] [Gc]2 [EG]2 | G>G [^FA]4 | [Fd]2 [Ec]4 |[M:4/4] z2 [EG]2 [EG]2 [FG]2 | %17
w: ||||
 [FG]2 [EG]>[Ec] [Ge]>[Fd] [Ec]2 | [EG]2 [FA]2 [FA]2 [GA]2 | [GA]2 [Ff]>[Ge] [Ad]>[Ac] [GB]2 | %20
w: |||
 G2 [Gc]2 [Ec]2 [Fc]2 | [Gc]2 [Ac]>[Ac] [^Gd]>[Gd] [=Ge]2 | G2 [^FA]2 [FA]2 [FA]>[Fc] | %23
w: |||
 [^Fc]>[FA] [Gc]2 [=FB]2 [Ec]2- | [Ec]6 z2 |] %25
w: ||
V:2
 x6 | x6 | x6 | x6 | x6 | [EA]>[EAc] [Ae]2 A2 | G2 [^Fd]>[Fe] [Fd]2 | x6 | x6 | x6 | x6 | x6 | x6 | %13
 x6 | x6 | x6 |[M:4/4] x8 | x8 | x8 | x8 | x8 | x8 | x8 | x8 | x8 |] %25
V:3
 C>C G,3 C | G,>G, C2 C2 | (3G,CG, C4 | B,2 C4 | G,>G, C3 A, | C>A, A,2 A,2- | A,2 A,>A, A,2 | %7
 C2 B,4 | D>D C3 C | G,>G, C2 C2 | (3G,[K:treble]CG, C2 E2 | E2 E4 | D>D D3 D | D>D E2 C2 | %14
 C>C C4 | B,2 C4 |[M:4/4] z2 C2 C2 B,2 | B,2 C>[K:bass]G, C>G, G,2 | C2[K:treble] C2 C2 ^C2 | %19
 ^C2 D>C D>D D2 | B,2 C2 G,2 G,2 | C2[K:treble] C>C C>C C2 | C2 C2 D2 D>D | D>D E2 D2 C2- | %24
 C6 z2 |] %25
V:4
 C,>C, C,3 C, | C,>C, C,2 C,2 | (3:2:2C,2 C, C,2 E,2 | G,2 C,4 | C,>C, A,,3 A,, | %5
 A,,>A,, C,2 C,2- | C,2 D,>D, D,2 | D,2 G,,4 | B,,>B,, C,3 C, | C,>C, C,2 C,2 | %10
 (3:2:2C,2 C, z2 z2 | B,2 A,4 | D,>D, D,3 D, | D,>D, G,2 G,2 | E,>E, D,4 | G,,2 [C,G,]4 | %16
[M:4/4] z2 C,2 C,2 D,2 | D,2 C,>C, C,>C, C,2 | C,2 F,2 F,2 E,2 | E,2 D,>E, F,>^F, G,2 | %20
 G,F, E,2 C,2 D,2 | E,2 F,>F, F,>F, C,2 | E,2 D,2 D,2 D,>D, | D,>D, G,2 [G,,G,]2 C,2- | C,6 z2 |] %25

